public/editor-src/editor/icons/editor/wp-content.svg

<svg id="nc-wp-post-content" viewBox="0 0 16 16">
    <g stroke="none" stroke-width="1" fill-rule="evenodd">
        <path
        d="M16,14 C16,14.5522847 15.5522847,15 15,15 L1,15 C0.44771525,15 6.76353751e-17,14.5522847 0,14 C-6.76353751e-17,13.4477153 0.44771525,13 1,13 L15,13 C15.5522847,13 16,13.4477153 16,14 Z M16,10 C16,10.5522847 15.5522847,11 15,11 L1,11 C0.44771525,11 6.76353751e-17,10.5522847 0,10 C-6.76353751e-17,9.44771525 0.44771525,9 1,9 L15,9 C15.5522847,9 16,9.44771525 16,10 Z M5,1 C5.6,1 6,1.4 6,2 L6,6 C6,6.6 5.6,7 5,7 L1,7 C0.4,7 0,6.6 0,6 L0,2 C0,1.4 0.4,1 1,1 L5,1 Z M16,6 C16,6.55228475 15.5522847,7 15,7 L9,7 C8.44771525,7 8,6.55228475 8,6 C8,5.44771525 8.44771525,5 9,5 L15,5 C15.5522847,5 16,5.44771525 16,6 Z M16,2 C16,2.55228475 15.5522847,3 15,3 L9,3 C8.44771525,3 8,2.55228475 8,2 C8,1.44771525 8.44771525,1 9,1 L15,1 C15.5522847,1 16,1.44771525 16,2 Z"
        fill="currectColor"
        fill-rule="nonzero"
        ></path>
    </g>
</svg>

<svg viewBox="0 0 16 16"><path fill="currectColor" fill-rule="nonzero" d="M16 14a1 1 0 0 1-1 1H1a1 1 0 0 1 0-2h14a1 1 0 0 1 1 1Zm0-4a1 1 0 0 1-1 1H1a1 1 0 0 1 0-2h14a1 1 0 0 1 1 1ZM5 1c.6 0 1 .4 1 1v4c0 .6-.4 1-1 1H1c-.6 0-1-.4-1-1V2c0-.6.4-1 1-1h4Zm11 5a1 1 0 0 1-1 1H9a1 1 0 1 1 0-2h6a1 1 0 0 1 1 1Zm0-4a1 1 0 0 1-1 1H9a1 1 0 1 1 0-2h6a1 1 0 0 1 1 1Z"/></svg>
